X: 1
T: Gan Ainm
M: 4/4
L: 1/8
R: barndance
K: Gmaj
|: (3GFE | D2 G2 B>AG>B | d2 c2 E3 G | F2 A2 d3 c | B>cB>A G>FE>F |
D2 G2 B>AG>B | d2 c2 E3 G | F2 d2 c>B A2 | G4 G2 :|
|: (3EFG | A2 d2 A3 B | A>GF>E D2 d>^c | B2 g2 e>d^c>e | d4 d>D (3EFG |
A3 B A3 B | c>BA>G F2 F<E | D2 e2 d>cB>A | G4 G2 :|
